svg/emoji_u1f9de_200d_2640.svg

<svg width="128" height="128" xmlns="http://www.w3.org/2000/svg" xmlns:xlink="http://www.w3.org/1999/xlink"><defs><path id="a" d="M4 4h120v120H4z"/></defs><clipPath id="b"><use xlink:href="#a" overflow="visible"/></clipPath><g clip-path="url(#b)"><path d="M64.03 119c-12.14 0-20.95-12.79-20.95-30.42 0-17.4 8.96-36.86 20.95-36.86 11.96 0 20.89 19.46 20.89 36.86 0 17.63-8.79 30.42-20.89 30.42z" fill="#3b1437"/><path d="M64.03 52.73c6.89 0 11.68 6.93 13.92 11.07 3.74 6.91 5.97 16.17 5.97 24.79 0 17.05-8.37 29.42-19.89 29.42-11.56 0-19.95-12.37-19.95-29.42 0-8.61 2.24-17.88 6-24.79 2.25-4.14 7.05-11.07 13.95-11.07m0-2c-12.61 0-21.95 19.69-21.95 37.86 0 18.17 9.34 31.42 21.95 31.42s21.89-13.25 21.89-31.42c0-18.18-9.28-37.86-21.89-37.86z"/></g><g clip-path="url(#b)"><path d="M64 93.67c-23.84 0-41.14-15.91-41.14-37.83 0-21.61 17.59-45.79 41.14-45.79 10.98 0 21.4 5.19 29.33 14.62 7.43 8.83 11.7 20.2 11.7 31.17 0 21.92-17.25 37.83-41.03 37.83z" fill="#3b1437"/><path d="M64 11.06c10.68 0 20.83 5.06 28.57 14.26 7.29 8.66 11.46 19.78 11.46 30.53 0 21.34-16.84 36.83-40.03 36.83-23.26 0-40.14-15.49-40.14-36.83 0-10.73 4.2-21.86 11.52-30.52C43.15 16.12 53.31 11.06 64 11.06m0-2c-24.22 0-42.14 24.33-42.14 46.79 0 22.45 17.92 38.83 42.14 38.83s42.03-16.37 42.03-38.83c0-22.46-17.81-46.79-42.03-46.79z"/></g><g clip-path="url(#b)"><path d="M36.67 72.26c-5.36 0-9.71-4.67-9.71-10.41s4.36-10.41 9.71-10.41h54.65c5.36 0 9.71 4.67 9.71 10.41s-4.36 10.41-9.71 10.41H36.67z" fill="#1e81b3"/><path d="M91.33 52.43c4.8 0 8.71 4.22 8.71 9.41s-3.91 9.41-8.71 9.41H36.67c-4.8 0-8.71-4.22-8.71-9.41s3.91-9.41 8.71-9.41h54.66m0-2H36.67c-5.89 0-10.71 5.14-10.71 11.41 0 6.28 4.82 11.41 10.71 11.41H91.32c5.89 0 10.71-5.14 10.71-11.41.01-6.27-4.81-11.41-10.7-11.41z" fill="#005585"/></g><g clip-path="url(#b)"><linearGradient id="c" gradientUnits="userSpaceOnUse" x1="64" x2="64" y1="91.321" y2="130.764"><stop offset="0" stop-color="#2fa2c6"/></linearGradient><path d="M13 131v-10.01c0-19.29 32.14-23 41.99-23.67.52-.04.93-.47.93-1v-5.24h16.16v5.26c0 .52.4.96.93 1C92.38 98.78 115 105.84 115 121v10H13z" fill="url(#c)"/><path d="M71.08 92.08v4.26c0 1.05.81 1.92 1.85 1.99 18.94 1.41 41.07 8.19 41.07 22.66V130H14v-9.01c0-6.54 4.02-11.88 11.95-15.89 7.18-3.63 17.24-5.97 29.11-6.79 1.05-.07 1.86-.94 1.86-2v-4.24h14.16m2-1.99H54.92v6.24C32.49 97.86 12 105.21 12 120.99V132h104v-11.01c0-14.91-20.39-22.98-42.92-24.65v-6.26z" fill="#005585"/></g><g clip-path="url(#b)"><linearGradient id="d" gradientUnits="userSpaceOnUse" x1="64" x2="64" y1="94.708" y2="17.885"><stop offset="0" stop-color="#166b9e"/></linearGradient><path d="M64 95.27c-2.3 0-4.91-.5-7.56-1.43C45.1 89.83 31.87 77.5 31.87 55.95c0-28.72 17.31-38.91 32.13-38.91s32.13 10.19 32.13 38.91c0 21.58-13.26 33.9-24.61 37.9-2.63.93-5.23 1.42-7.52 1.42z" fill="url(#d)"/><path d="M64 18.04c8.41 0 16.06 3.25 21.55 9.15 6.27 6.73 9.58 16.68 9.58 28.77 0 21.06-12.9 33.07-23.94 36.96-2.53.89-5.01 1.36-7.19 1.36-2.19 0-4.69-.48-7.23-1.38-11.03-3.9-23.9-15.92-23.9-36.94 0-12.09 3.31-22.03 9.58-28.77 5.49-5.9 13.14-9.15 21.55-9.15m0-2c-17.2 0-33.13 12.79-33.13 39.91 0 21.79 13.49 34.67 25.23 38.83 2.8.99 5.5 1.49 7.9 1.49 2.38 0 5.07-.49 7.85-1.47 11.76-4.14 25.28-17.03 25.28-38.84 0-27.13-15.93-39.92-33.13-39.92z" fill="#005585"/></g><g clip-path="url(#b)"><path d="M67.81 68.05c-.1-.04-.21-.07-.32-.08H60.5c-.11.01-.21.04-.32.08-.63.26-.98.91-.68 1.61.3.7 1.69 2.66 4.49 2.66 2.8 0 4.19-1.96 4.49-2.66.31-.69-.03-1.35-.67-1.61z" fill="#4a4a4a"/><ellipse cx="47.75" cy="58.87" rx="4.87" ry="5.04" fill="#1a1a1a"/><ellipse cx="80.25" cy="58.87" rx="4.87" ry="5.04" fill="#1a1a1a"/><path d="M54.98 49.82c-.93-1.23-3.07-3.01-7.23-3.01s-6.31 1.79-7.23 3.01c-.41.54-.31 1.17-.02 1.55.26.35 1.04.68 1.9.39.86-.29 2.54-1.16 5.35-1.18 2.81.02 4.49.89 5.35 1.18.86.29 1.64-.03 1.9-.39.29-.38.39-1.01-.02-1.55zM87.48 49.82c-.93-1.23-3.07-3.01-7.23-3.01s-6.31 1.79-7.23 3.01c-.41.54-.31 1.17-.02 1.55.26.35 1.04.68 1.9.39.86-.29 2.54-1.16 5.35-1.18 2.81.02 4.49.89 5.35 1.18.86.29 1.64-.03 1.9-.39.29-.38.39-1.01-.02-1.55z" fill="#662e1b"/><path d="M72.32 76.14c-3.15 1.87-13.46 1.87-16.61 0-1.81-1.07-3.65.57-2.9 2.21.74 1.61 6.37 5.36 11.23 5.36s10.42-3.75 11.16-5.36c.75-1.64-1.08-3.29-2.88-2.21z" fill="#1a1a1a"/></g><g clip-path="url(#b)"><radialGradient id="e" cx="64.253" cy="8.673" gradientTransform="matrix(0 .8523 -1.0579 0 73.427 -46.298)" gradientUnits="userSpaceOnUse" r="45.731"><stop offset="0" stop-color="#8d0a6a"/></radialGradient><path d="M32.06 56.2c-1.01-1.5-2.29-3.41-3.27-4.87-.37-1.99-3.32-19.78 6.36-31.75 6.01-7.44 15.72-11.24 28.84-11.3h.11c13.03.06 22.74 3.87 28.75 11.31 9.68 11.97 6.72 29.76 6.36 31.75-.97 1.46-2.25 3.37-3.27 4.87-.56-6.43-2.97-15.08-4.77-19.16-1.06-2.4-3.65-3.95-6.61-3.95-.42 0-.84.03-1.25.1-4.51.7-11.51 1.53-19.22 1.53h-.15c-7.74 0-14.73-.83-19.24-1.53-.41-.06-.83-.1-1.25-.1-2.96 0-5.55 1.55-6.61 3.95-1.81 4.07-4.22 12.72-4.78 19.15z" fill="url(#e)"/><path d="M63.97 9.28h.04c12.8.06 22.24 3.73 28.06 10.92 9.15 11.31 6.66 28.09 6.19 30.75-.55.82-1.11 1.66-1.65 2.46-.89-6.1-2.95-13.18-4.53-16.77-1.22-2.76-4.17-4.55-7.53-4.55-.47 0-.94.04-1.4.11-4.48.69-11.42 1.52-19.08 1.52h-.09-.06c-7.65 0-14.59-.82-19.07-1.52-.46-.07-.94-.11-1.4-.11-3.35 0-6.31 1.78-7.53 4.55-1.59 3.59-3.64 10.68-4.53 16.77-.54-.8-1.1-1.64-1.65-2.46-.47-2.65-2.98-19.39 6.18-30.73 5.81-7.2 15.25-10.88 28.05-10.94m.05-2h-.04c-45.43.21-36.13 44.44-36.13 44.44s5 7.51 5.1 7.51c-.16-6.18 2.74-17.12 4.8-21.78.91-2.05 3.2-3.35 5.7-3.35.36 0 .73.03 1.1.08 4.45.69 11.55 1.54 19.37 1.54h.16c7.83 0 14.92-.85 19.37-1.54.37-.06.74-.08 1.1-.08 2.5 0 4.79 1.3 5.7 3.35 2.06 4.66 4.96 15.6 4.8 21.78.09 0 5.1-7.51 5.1-7.51s9.3-44.23-36.13-44.44z" fill="#3b1437"/></g><g clip-path="url(#b)"><g fill="#ffea00"><path d="M32.99 28.23c-.37.66-1.28.85-2.01.41-.73-.44-.99-1.33-.58-1.97.41-.64 1.29-.8 1.99-.38s.97 1.28.6 1.94z"/><path d="M35.64 29.66c-.34.67-1.23.91-1.98.51s-1.04-1.28-.67-1.94c.37-.66 1.25-.86 1.97-.48.71.39 1.02 1.23.68 1.91z"/><path d="M38.33 30.94c-.31.69-1.18.97-1.94.61s-1.09-1.22-.75-1.9c.34-.67 1.2-.92 1.93-.57.73.35 1.07 1.17.76 1.86zM41.07 32.1c-.28.7-1.13 1.03-1.91.7s-1.14-1.17-.83-1.86 1.16-.98 1.9-.67 1.12 1.12.84 1.83z"/><path d="M43.85 33.11c-.24.72-1.08 1.08-1.87.79-.78-.29-1.19-1.11-.91-1.81.28-.7 1.1-1.04 1.86-.76.75.28 1.16 1.07.92 1.78zM46.67 33.99c-.21.73-1.03 1.13-1.82.88-.79-.25-1.24-1.05-.99-1.76.24-.72 1.05-1.09 1.81-.85s1.21 1.01 1 1.73zM49.51 34.74c-.17.74-.97 1.18-1.77.97-.8-.21-1.28-.99-1.07-1.71.21-.73 1-1.14 1.77-.94.76.2 1.24.94 1.07 1.68z"/><path d="M52.38 35.35c-.14.74-.91 1.22-1.72 1.05-.81-.17-1.32-.93-1.15-1.66.17-.74.94-1.18 1.72-1.02.77.17 1.29.89 1.15 1.63z"/><path d="M55.27 35.83c-.11.75-.85 1.27-1.67 1.13-.82-.13-1.36-.86-1.22-1.61.14-.74.88-1.23 1.66-1.1.78.13 1.33.83 1.23 1.58z"/><path d="M58.17 36.16c-.07.75-.79 1.3-1.61 1.21-.82-.1-1.4-.8-1.29-1.55.11-.75.82-1.27 1.61-1.17.78.09 1.36.76 1.29 1.51zM61.08 36.37c-.04.76-.73 1.34-1.55 1.28-.82-.06-1.43-.73-1.36-1.48.07-.75.76-1.3 1.55-1.25.79.05 1.4.69 1.36 1.45z"/><path d="M64 36.44c0 .76-.67 1.37-1.49 1.35s-1.46-.66-1.43-1.42c.04-.76.7-1.34 1.49-1.32s1.43.63 1.43 1.39zM66.92 36.37c.04.76-.6 1.4-1.43 1.42S64 37.19 64 36.44c0-.76.64-1.37 1.43-1.39.79-.02 1.45.56 1.49 1.32z"/><path d="M69.83 36.16c.07.75-.54 1.43-1.36 1.48-.82.06-1.52-.53-1.55-1.28-.04-.76.57-1.4 1.36-1.45.79-.05 1.48.5 1.55 1.25z"/><path d="M72.73 35.83c.11.75-.47 1.45-1.29 1.55-.82.1-1.54-.45-1.61-1.21-.07-.75.51-1.42 1.29-1.51.79-.1 1.51.42 1.61 1.17z"/><path d="M75.62 35.35c.14.74-.4 1.47-1.22 1.61-.82.13-1.56-.38-1.67-1.13-.11-.75.44-1.44 1.22-1.57s1.53.35 1.67 1.09z"/><path d="M78.49 34.74c.17.74-.34 1.49-1.15 1.66-.81.17-1.58-.31-1.72-1.05s.38-1.46 1.15-1.63c.78-.16 1.55.28 1.72 1.02zM81.33 33.99c.21.73-.27 1.5-1.07 1.71-.8.21-1.6-.23-1.77-.97-.17-.74.31-1.48 1.08-1.68.77-.19 1.55.22 1.76.94zM84.15 33.11c.24.72-.2 1.52-.99 1.76-.79.25-1.61-.16-1.82-.88-.21-.73.24-1.49 1-1.73s1.57.14 1.81.85zM86.93 32.1c.28.7-.13 1.52-.91 1.81-.78.29-1.62-.08-1.86-.79-.24-.72.17-1.5.92-1.78.74-.28 1.57.05 1.85.76z"/><path d="M89.67 30.94c.31.69-.06 1.53-.83 1.86-.77.33-1.63 0-1.91-.7s.1-1.51.84-1.82 1.59-.03 1.9.66z"/><path d="M92.36 29.66c.34.67.01 1.53-.75 1.9-.76.36-1.63.08-1.94-.61-.31-.69.04-1.52.76-1.86.73-.36 1.59-.11 1.93.57z"/><path d="M95.01 28.23c.37.66.08 1.53-.67 1.94-.75.4-1.64.16-1.98-.51-.34-.67-.03-1.52.68-1.9.72-.39 1.6-.19 1.97.47z"/><path d="M97.6 26.67c.41.64.15 1.53-.58 1.97-.73.44-1.64.25-2.01-.41-.37-.66-.1-1.52.6-1.94s1.59-.26 1.99.38z"/></g><path fill="#d4145a" d="M60.3 41.06v-9.22l3.7-4.61 3.7 4.61v9.22L64 45.67z"/><path d="M64 28.63l1.41 1.76 1.41 1.76v8.61l-1.41 1.76L64 44.27l-1.41-1.76-1.41-1.76v-8.61l1.41-1.76L64 28.63m0-2.8l-1.36 1.7-1.41 1.76-1.41 1.76-.39.48V41.38l.39.48 1.41 1.76 1.41 1.76 1.36 1.7 1.36-1.7 1.41-1.76 1.41-1.76.39-.48V31.53l-.39-.48-1.41-1.76-1.41-1.76-1.36-1.7z" fill="#fdd835"/></g><linearGradient id="f" gradientTransform="rotate(20.39 22.501 120.123)" gradientUnits="userSpaceOnUse" x1="18.806" x2="18.806" y1="103.178" y2="137.518"><stop offset="0" stop-color="#f3bcf1"/></linearGradient><path d="M16.78 132.92l-5.23-1.94c-5.17-1.92-7.81-7.68-5.89-12.85l2.7-7.28c1.92-5.17 7.68-7.81 12.85-5.89l5.23 1.94c5.17 1.92 7.81 7.68 5.89 12.85l-2.7 7.28c-1.92 5.17-7.67 7.81-12.85 5.89z" clip-path="url(#b)" fill="url(#f)" stroke="#b26aba" stroke-width="2" stroke-linecap="round" stroke-linejoin="round" stroke-miterlimit="10"/><linearGradient id="g" gradientTransform="scale(-1 1) rotate(20.39 -84.627 -475.556)" gradientUnits="userSpaceOnUse" x1="99.649" x2="99.649" y1="73.13" y2="107.47"><stop offset="0" stop-color="#f3bcf1"/></linearGradient><path d="M111.22 132.92l5.23-1.94c5.17-1.92 7.81-7.68 5.89-12.85l-2.7-7.28c-1.92-5.17-7.68-7.81-12.85-5.89l-5.23 1.94c-5.17 1.92-7.81 7.68-5.89 12.85l2.7 7.28c1.92 5.17 7.67 7.81 12.85 5.89z" clip-path="url(#b)" fill="url(#g)" stroke="#b26aba" stroke-width="2" stroke-linecap="round" stroke-linejoin="round" stroke-miterlimit="10"/><linearGradient id="h" gradientUnits="userSpaceOnUse" x1="23.715" x2="23.715" y1="112.167" y2="136.5"><stop offset="0" stop-color="#f3bcf1"/></linearGradient><path d="M23.59 132.08c.14.14.21.1.26-.08-.2.02-.3.05-.26.08z" clip-path="url(#b)" fill="url(#h)"/><g clip-path="url(#b)"><linearGradient id="i" gradientUnits="userSpaceOnUse" x1="63.868" x2="63.868" y1="111.515" y2="133.766"><stop offset="0" stop-color="#f3bcf1"/></linearGradient><path d="M25.18 131c-.26-2.9-.8-8.95 2.94-13.04 2.66-2.91 7.09-4.38 13.17-4.38 1.53 0 3.19.09 4.93.28 5.02.54 8.59 1.98 12.37 3.51 1.62.65 3.29 1.33 5.08 1.93.11.04.22.05.34.05s.23-.02.34-.05c1.78-.6 3.45-1.26 5.06-1.91 3.79-1.52 7.36-2.95 12.4-3.53 1.61-.19 3.15-.28 4.58-.28 5.54 0 9.72 1.41 12.44 4.18 4.11 4.2 3.98 10.47 3.91 13.48 0 .11 0 .22-.01.32-5.38-.13-26.14-.17-38.72-.17-12.62 0-33.47.04-38.77.17-.03-.17-.04-.36-.06-.56z" fill="url(#i)"/><path d="M86.37 114.65c5.24 0 9.16 1.3 11.67 3.86 3.49 3.57 3.66 8.89 3.62 11.95-8.23-.14-34.31-.15-37.67-.15-3.38 0-29.7 0-37.79.15-.25-2.89-.55-8.23 2.7-11.78 2.45-2.68 6.61-4.03 12.37-4.03 1.49 0 3.12.09 4.82.28 4.87.52 8.37 1.94 12.08 3.44 1.63.66 3.32 1.34 5.15 1.95.22.07.45.11.68.11s.46-.04.68-.11c1.81-.61 3.49-1.28 5.12-1.93 3.72-1.49 7.23-2.9 12.13-3.46 1.56-.19 3.06-.28 4.44-.28m0-2.15c-1.45 0-3.01.09-4.7.29-7.4.86-11.84 3.54-17.67 5.49-5.84-1.95-10.27-4.69-17.67-5.49-1.82-.2-3.5-.29-5.05-.29-21.86 0-16.7 18.45-17.11 20.17 1.4-.14 20.61-.21 39.83-.21s38.42.07 39.83.21c-.41-1.72 3-20.17-17.46-20.17z" fill="#b26aba"/></g></svg>

<?xml version="1.0" encoding="UTF-8" standalone="no"?>
<!DOCTYPE svg PUBLIC "-//W3C//DTD SVG 1.1//EN" "http://www.w3.org/Graphics/SVG/1.1/DTD/svg11.dtd">
<svg width="100%" height="100%" viewBox="0 0 128 128" version="1.1" xmlns="http://www.w3.org/2000/svg" xmlns:xlink="http://www.w3.org/1999/xlink" xml:space="preserve" xmlns:serif="http://www.serif.com/" style="fill-rule:evenodd;clip-rule:evenodd;stroke-linejoin:round;stroke-miterlimit:2;">
    <g>
        <path d="M64.03,119C51.89,119 43.08,106.21 43.08,88.58C43.08,71.18 52.04,51.72 64.03,51.72C75.99,51.72 84.92,71.18 84.92,88.58C84.92,106.21 76.13,119 64.03,119Z" style="fill:rgb(119,41,152);fill-rule:nonzero;"/>
    </g>
    <g>
        <path d="M64,93.67C40.16,93.67 22.86,77.76 22.86,55.84C22.86,34.23 40.45,10.05 64,10.05C74.98,10.05 85.4,15.24 93.33,24.67C100.76,33.5 105.03,44.87 105.03,55.84C105.03,77.76 87.78,93.67 64,93.67Z" style="fill:rgb(119,41,152);fill-rule:nonzero;"/>
    </g>
    <g transform="matrix(1,0,0,1,0,-2.825)">
        <clipPath id="_clip1">
            <rect x="4" y="4" width="120" height="120"/>
        </clipPath>
        <g clip-path="url(#_clip1)">
            <g transform="matrix(1,0,0,1,0,2.825)">
                <path d="M13,131L13,120.99C13,101.7 45.14,97.99 54.99,97.32C55.51,97.28 55.92,96.85 55.92,96.32L55.92,91.08L72.08,91.08L72.08,96.34C72.08,96.86 72.48,97.3 73.01,97.34C92.38,98.78 115,105.84 115,121L115,131L13,131Z" style="fill:rgb(29,140,200);fill-rule:nonzero;"/>
            </g>
            <g transform="matrix(1,0,0,1,-0.05,2.91)">
                <path d="M96.19,51.47C96.19,51.47 102.08,52.49 102.08,58.84C102.08,64.44 97.78,66.65 93.48,66.65L93.48,51.47L96.19,51.47ZM31.91,51.47C31.91,51.47 26.02,52.49 26.02,58.84C26.02,64.44 30.32,66.65 34.62,66.65L34.62,51.47L31.91,51.47Z" style="fill:rgb(29,140,200);fill-rule:nonzero;"/>
            </g>
            <g transform="matrix(1,0,0,1,-0.05,2.91)">
                <path d="M64.05,9.91C38.65,9.91 32.01,29.6 32.01,57.26C32.01,85.94 50.44,93.36 64.05,93.36C77.46,93.36 96.09,86.16 96.09,57.26C96.1,29.59 89.45,9.91 64.05,9.91Z" style="fill:rgb(66,173,231);fill-rule:nonzero;"/>
            </g>
            <g transform="matrix(1,0,0,1,-0.05,2.91)">
                <path d="M53.5,59.82C53.5,62.68 51.59,64.99 49.22,64.99C46.86,64.99 44.93,62.67 44.93,59.82C44.93,56.96 46.85,54.64 49.22,54.64C51.59,54.64 53.5,56.96 53.5,59.82M74.6,59.82C74.6,62.68 76.51,64.99 78.89,64.99C81.25,64.99 83.17,62.67 83.17,59.82C83.17,56.96 81.25,54.64 78.89,54.64C76.51,54.64 74.6,56.96 74.6,59.82" style="fill:rgb(33,33,33);fill-rule:nonzero;"/>
            </g>
            <g transform="matrix(1,0,0,1,-0.05,2.91)">
                <path d="M73.33,77.29L54.79,77.29C53.73,77.29 53.27,78 53.97,79.08C54.95,80.58 58.61,83.46 64.06,83.46C69.51,83.46 73.17,80.58 74.15,79.08C74.85,78.01 74.39,77.29 73.33,77.29Z" style="fill:rgb(33,33,33);fill-rule:nonzero;"/>
            </g>
            <g transform="matrix(1,0,0,1,-0.05,2.91)">
                <path d="M68.53,69.41C66.95,69.86 65.31,70.07 64.05,70.07C62.79,70.07 61.15,69.85 59.57,69.41C58.9,69.22 58.63,69.86 58.87,70.28C59.37,71.16 61.39,72.94 64.05,72.94C66.71,72.94 68.73,71.16 69.23,70.28C69.47,69.86 69.21,69.22 68.53,69.41Z" style="fill:rgb(19,81,124);fill-rule:nonzero;"/>
            </g>
        </g>
    </g>
    <g>
        <path d="M32.06,56.2C31.05,54.7 29.77,52.79 28.79,51.33C28.42,49.34 25.47,31.55 35.15,19.58C41.16,12.14 50.87,8.34 63.99,8.28L64.1,8.28C77.13,8.34 86.84,12.15 92.85,19.59C102.53,31.56 99.57,49.35 99.21,51.34C98.24,52.8 96.96,54.71 95.94,56.21C95.38,49.78 92.97,41.13 91.17,37.05C90.11,34.65 87.52,33.1 84.56,33.1C84.14,33.1 83.72,33.13 83.31,33.2C78.8,33.9 71.8,34.73 64.09,34.73L63.94,34.73C56.2,34.73 49.21,33.9 44.7,33.2C44.29,33.14 43.87,33.1 43.45,33.1C40.49,33.1 37.9,34.65 36.84,37.05C35.03,41.12 32.62,49.77 32.06,56.2Z" style="fill:rgb(136,46,160);fill-rule:nonzero;"/>
    </g>
    <g>
        <g>
            <path d="M32.99,28.23C32.62,28.89 31.71,29.08 30.98,28.64C30.25,28.2 29.99,27.31 30.4,26.67C30.81,26.03 31.69,25.87 32.39,26.29C33.09,26.71 33.36,27.57 32.99,28.23Z" style="fill:rgb(255,234,0);fill-rule:nonzero;"/>
            <path d="M35.64,29.66C35.3,30.33 34.41,30.57 33.66,30.17C32.91,29.77 32.62,28.89 32.99,28.23C33.36,27.57 34.24,27.37 34.96,27.75C35.67,28.14 35.98,28.98 35.64,29.66Z" style="fill:rgb(255,234,0);fill-rule:nonzero;"/>
            <path d="M38.33,30.94C38.02,31.63 37.15,31.91 36.39,31.55C35.63,31.19 35.3,30.33 35.64,29.65C35.98,28.98 36.84,28.73 37.57,29.08C38.3,29.43 38.64,30.25 38.33,30.94ZM41.07,32.1C40.79,32.8 39.94,33.13 39.16,32.8C38.38,32.47 38.02,31.63 38.33,30.94C38.64,30.25 39.49,29.96 40.23,30.27C40.97,30.58 41.35,31.39 41.07,32.1Z" style="fill:rgb(255,234,0);fill-rule:nonzero;"/>
            <path d="M43.85,33.11C43.61,33.83 42.77,34.19 41.98,33.9C41.2,33.61 40.79,32.79 41.07,32.09C41.35,31.39 42.17,31.05 42.93,31.33C43.68,31.61 44.09,32.4 43.85,33.11ZM46.67,33.99C46.46,34.72 45.64,35.12 44.85,34.87C44.06,34.62 43.61,33.82 43.86,33.11C44.1,32.39 44.91,32.02 45.67,32.26C46.43,32.5 46.88,33.27 46.67,33.99ZM49.51,34.74C49.34,35.48 48.54,35.92 47.74,35.71C46.94,35.5 46.46,34.72 46.67,34C46.88,33.27 47.67,32.86 48.44,33.06C49.2,33.26 49.68,34 49.51,34.74Z" style="fill:rgb(255,234,0);fill-rule:nonzero;"/>
            <path d="M52.38,35.35C52.24,36.09 51.47,36.57 50.66,36.4C49.85,36.23 49.34,35.47 49.51,34.74C49.68,34 50.45,33.56 51.23,33.72C52,33.89 52.52,34.61 52.38,35.35Z" style="fill:rgb(255,234,0);fill-rule:nonzero;"/>
            <path d="M55.27,35.83C55.16,36.58 54.42,37.1 53.6,36.96C52.78,36.83 52.24,36.1 52.38,35.35C52.52,34.61 53.26,34.12 54.04,34.25C54.82,34.38 55.37,35.08 55.27,35.83Z" style="fill:rgb(255,234,0);fill-rule:nonzero;"/>
            <path d="M58.17,36.16C58.1,36.91 57.38,37.46 56.56,37.37C55.74,37.27 55.16,36.57 55.27,35.82C55.38,35.07 56.09,34.55 56.88,34.65C57.66,34.74 58.24,35.41 58.17,36.16ZM61.08,36.37C61.04,37.13 60.35,37.71 59.53,37.65C58.71,37.59 58.1,36.92 58.17,36.17C58.24,35.42 58.93,34.87 59.72,34.92C60.51,34.97 61.12,35.61 61.08,36.37Z" style="fill:rgb(255,234,0);fill-rule:nonzero;"/>
            <path d="M64,36.44C64,37.2 63.33,37.81 62.51,37.79C61.69,37.77 61.05,37.13 61.08,36.37C61.12,35.61 61.78,35.03 62.57,35.05C63.36,35.07 64,35.68 64,36.44ZM66.92,36.37C66.96,37.13 66.32,37.77 65.49,37.79C64.66,37.81 64,37.19 64,36.44C64,35.68 64.64,35.07 65.43,35.05C66.22,35.03 66.88,35.61 66.92,36.37Z" style="fill:rgb(255,234,0);fill-rule:nonzero;"/>
            <path d="M69.83,36.16C69.9,36.91 69.29,37.59 68.47,37.64C67.65,37.7 66.95,37.11 66.92,36.36C66.88,35.6 67.49,34.96 68.28,34.91C69.07,34.86 69.76,35.41 69.83,36.16Z" style="fill:rgb(255,234,0);fill-rule:nonzero;"/>
            <path d="M72.73,35.83C72.84,36.58 72.26,37.28 71.44,37.38C70.62,37.48 69.9,36.93 69.83,36.17C69.76,35.42 70.34,34.75 71.12,34.66C71.91,34.56 72.63,35.08 72.73,35.83Z" style="fill:rgb(255,234,0);fill-rule:nonzero;"/>
            <path d="M75.62,35.35C75.76,36.09 75.22,36.82 74.4,36.96C73.58,37.09 72.84,36.58 72.73,35.83C72.62,35.08 73.17,34.39 73.95,34.26C74.73,34.13 75.48,34.61 75.62,35.35Z" style="fill:rgb(255,234,0);fill-rule:nonzero;"/>
            <path d="M78.49,34.74C78.66,35.48 78.15,36.23 77.34,36.4C76.53,36.57 75.76,36.09 75.62,35.35C75.48,34.61 76,33.89 76.77,33.72C77.55,33.56 78.32,34 78.49,34.74ZM81.33,33.99C81.54,34.72 81.06,35.49 80.26,35.7C79.46,35.91 78.66,35.47 78.49,34.73C78.32,33.99 78.8,33.25 79.57,33.05C80.34,32.86 81.12,33.27 81.33,33.99ZM84.15,33.11C84.39,33.83 83.95,34.63 83.16,34.87C82.37,35.12 81.55,34.71 81.34,33.99C81.13,33.26 81.58,32.5 82.34,32.26C83.1,32.02 83.91,32.4 84.15,33.11ZM86.93,32.1C87.21,32.8 86.8,33.62 86.02,33.91C85.24,34.2 84.4,33.83 84.16,33.12C83.92,32.4 84.33,31.62 85.08,31.34C85.82,31.06 86.65,31.39 86.93,32.1Z" style="fill:rgb(255,234,0);fill-rule:nonzero;"/>
            <path d="M89.67,30.94C89.98,31.63 89.61,32.47 88.84,32.8C88.07,33.13 87.21,32.8 86.93,32.1C86.65,31.4 87.03,30.59 87.77,30.28C88.51,29.97 89.36,30.25 89.67,30.94Z" style="fill:rgb(255,234,0);fill-rule:nonzero;"/>
            <path d="M92.36,29.66C92.7,30.33 92.37,31.19 91.61,31.56C90.85,31.92 89.98,31.64 89.67,30.95C89.36,30.26 89.71,29.43 90.43,29.09C91.16,28.73 92.02,28.98 92.36,29.66Z" style="fill:rgb(255,234,0);fill-rule:nonzero;"/>
            <path d="M95.01,28.23C95.38,28.89 95.09,29.76 94.34,30.17C93.59,30.57 92.7,30.33 92.36,29.66C92.02,28.99 92.33,28.14 93.04,27.76C93.76,27.37 94.64,27.57 95.01,28.23Z" style="fill:rgb(255,234,0);fill-rule:nonzero;"/>
            <path d="M97.6,26.67C98.01,27.31 97.75,28.2 97.02,28.64C96.29,29.08 95.38,28.89 95.01,28.23C94.64,27.57 94.91,26.71 95.61,26.29C96.31,25.87 97.2,26.03 97.6,26.67Z" style="fill:rgb(255,234,0);fill-rule:nonzero;"/>
        </g>
        <path d="M60.3,41.06L60.3,31.84L64,27.23L67.7,31.84L67.7,41.06L64,45.67L60.3,41.06Z" style="fill:rgb(212,20,90);fill-rule:nonzero;"/>
        <path d="M64,28.63L66.82,32.15L66.82,40.76L65.41,42.52L64,44.27L61.18,40.75L61.18,32.14L62.59,30.38L64,28.63M64,25.83L62.64,27.53L59.82,31.05L59.43,31.53L59.43,41.38L59.82,41.86L62.64,45.38L64,47.08L65.36,45.38L68.18,41.86L68.57,41.38L68.57,31.53L68.18,31.05L65.36,27.53L64,25.83Z" style="fill:rgb(253,216,53);fill-rule:nonzero;"/>
    </g>
    <clipPath id="_clip2">
        <rect x="4" y="4" width="120" height="120"/>
    </clipPath>
    <g clip-path="url(#_clip2)">
        <path d="M16.78,132.92L11.55,130.98C6.38,129.06 3.74,123.3 5.66,118.13L8.36,110.85C10.28,105.68 16.04,103.04 21.21,104.96L26.44,106.9C31.61,108.82 34.25,114.58 32.33,119.75L29.63,127.03C27.71,132.2 21.96,134.84 16.78,132.92Z" style="fill:rgb(244,164,191);fill-rule:nonzero;"/>
    </g>
    <clipPath id="_clip3">
        <rect x="4" y="4" width="120" height="120"/>
    </clipPath>
    <g clip-path="url(#_clip3)">
        <path d="M111.22,132.92L116.45,130.98C121.62,129.06 124.26,123.3 122.34,118.13L119.64,110.85C117.72,105.68 111.96,103.04 106.79,104.96L101.56,106.9C96.39,108.82 93.75,114.58 95.67,119.75L98.37,127.03C100.29,132.2 106.04,134.84 111.22,132.92Z" style="fill:rgb(244,164,191);fill-rule:nonzero;"/>
    </g>
    <g>
        <clipPath id="_clip4">
            <rect x="4" y="4" width="120" height="120"/>
        </clipPath>
        <g clip-path="url(#_clip4)">
            <path d="M25.18,131C24.92,128.1 24.38,122.05 28.12,117.96C30.78,115.05 35.21,113.58 41.29,113.58C42.82,113.58 44.48,113.67 46.22,113.86C51.24,114.4 54.81,115.84 58.59,117.37C60.21,118.02 61.88,118.7 63.67,119.3C63.78,119.34 63.89,119.35 64.01,119.35C64.13,119.35 64.24,119.33 64.35,119.3C66.13,118.7 67.8,118.04 69.41,117.39C73.2,115.87 76.77,114.44 81.81,113.86C83.42,113.67 84.96,113.58 86.39,113.58C91.93,113.58 96.11,114.99 98.83,117.76C102.94,121.96 102.81,128.23 102.74,131.24C102.74,131.35 102.74,131.46 102.73,131.56C97.35,131.43 76.59,131.39 64.01,131.39C51.39,131.39 30.54,131.43 25.24,131.56C25.21,131.39 25.2,131.2 25.18,131Z" style="fill:rgb(244,164,191);fill-rule:nonzero;"/>
        </g>
    </g>
</svg>
